assets/laptop.svg

<svg width="214" height="215" viewBox="0 0 214 215" fill="none" xmlns="http://www.w3.org/2000/svg">
<rect y="0.723633" width="214" height="214" rx="16" fill="#E8F2EE"/>
<g clip-path="url(#clip0_607_234)">
<path d="M135.444 127.45C134.703 125.738 133.852 123.88 131.889 123.88H130.111C132.074 123.88 133.667 122.282 133.667 120.31V89.9602C133.668 89.4923 133.576 89.0288 133.398 88.5962C133.22 88.1636 132.958 87.7704 132.628 87.4389C132.298 87.1074 131.906 86.8442 131.474 86.6643C131.042 86.4844 130.579 86.3913 130.111 86.3904H83.8889C81.9262 86.3904 80.3333 87.9886 80.3333 89.9602V120.31C80.3333 122.282 81.9262 123.88 83.8889 123.88H82.1111C80.1484 123.88 79.1476 125.665 78.5556 127.45L75 136.152C75 138.125 76.5929 139.724 78.5556 139.724H135.444C137.407 139.724 139 138.125 139 136.154L135.444 127.45Z" fill="#CCD6DD"/>
<path d="M75.0142 136.302L75.0248 136.403L75.327 137.633C75.6077 138.255 76.0613 138.782 76.6338 139.153C77.2063 139.524 77.8734 139.722 78.5555 139.724H135.444C136.362 139.721 137.243 139.363 137.903 138.725C138.564 138.087 138.951 137.219 138.986 136.302H75.0142Z" fill="#9AAAB4"/>
<path d="M130.111 118.524C130.111 119.51 129.316 120.309 128.333 120.309H85.6664C84.6851 120.309 83.8887 119.51 83.8887 118.524V91.7468C83.8887 90.7601 84.6851 89.9619 85.6664 89.9619H128.333C129.316 89.9619 130.111 90.7619 130.111 91.7468V118.524Z" fill="#5DADEC"/>
<path d="M133.5 130.909L132.149 127.043C131.724 126.225 131.02 125.555 130.037 125.555H84.0846C83.1033 125.555 82.474 126.28 82.0295 127.396L80.8064 130.911C80.4171 131.971 81.6029 132.696 82.5842 132.696H96.0562C96.0562 132.696 97.722 132.612 98.0171 131.615C98.3584 130.463 98.7549 128.728 98.8402 128.422C98.9717 127.953 99.53 127.478 100.362 127.478H115.612C116.501 127.478 116.938 127.928 117.054 128.484C117.128 128.847 117.608 130.513 117.832 131.652C118.03 132.668 120.003 132.694 120.003 132.694H131.726C132.705 132.694 133.889 131.857 133.5 130.909Z" fill="#AEBBC1"/>
<path d="M114.778 134.591H100.945C100.278 134.591 99.9883 133.982 100.084 133.391C100.18 132.803 100.723 130.204 100.765 129.902C100.806 129.598 101.252 129.235 101.697 129.235H114.168C114.696 129.235 115.039 129.525 115.146 130.104C115.251 130.686 115.683 133.022 115.716 133.555C115.75 134.09 115.416 134.591 114.778 134.591Z" fill="#9AAAB4"/>
</g>
<defs>
<clipPath id="clip0_607_234">
<rect width="64" height="64" fill="white" transform="translate(75 75.7236)"/>
</clipPath>
</defs>
</svg>

<svg width="214" height="215" fill="none" xmlns="http://www.w3.org/2000/svg"><rect y=".724" width="214" height="214" rx="16" fill="#E8F2EE"/><g clip-path="url(#a)"><path d="M135.444 127.45c-.741-1.712-1.592-3.57-3.555-3.57h-1.778a3.563 3.563 0 0 0 3.556-3.57V89.96a3.566 3.566 0 0 0-3.556-3.57H83.889a3.563 3.563 0 0 0-3.556 3.57v30.35a3.563 3.563 0 0 0 3.556 3.57H82.11c-1.963 0-2.963 1.785-3.555 3.57L75 136.152a3.564 3.564 0 0 0 3.556 3.572h56.888a3.564 3.564 0 0 0 3.556-3.57l-3.556-8.704Z" fill="#CCD6DD"/><path d="m75.014 136.302.01.101.303 1.23a3.552 3.552 0 0 0 3.228 2.091h56.889a3.555 3.555 0 0 0 3.542-3.422H75.014Z" fill="#9AAAB4"/><path d="M130.111 118.524a1.78 1.78 0 0 1-1.778 1.785H85.666a1.782 1.782 0 0 1-1.777-1.785V91.747c0-.987.796-1.785 1.777-1.785h42.667c.983 0 1.778.8 1.778 1.785v26.777Z" fill="#5DADEC"/><path d="m133.5 130.909-1.351-3.866c-.425-.818-1.129-1.488-2.112-1.488H84.085c-.982 0-1.611.725-2.055 1.841l-1.224 3.515c-.389 1.06.797 1.785 1.778 1.785h13.472s1.666-.084 1.961-1.081c.341-1.152.738-2.887.823-3.193.132-.469.69-.944 1.522-.944h15.25c.889 0 1.326.45 1.442 1.006.074.363.554 2.029.778 3.168.198 1.016 2.171 1.042 2.171 1.042h11.723c.979 0 2.163-.837 1.774-1.785Z" fill="#AEBBC1"/><path d="M114.778 134.591h-13.833c-.667 0-.957-.609-.861-1.2.096-.588.639-3.187.681-3.489.041-.304.487-.667.932-.667h12.471c.528 0 .871.29.978.869.105.582.537 2.918.57 3.451.034.535-.3 1.036-.938 1.036Z" fill="#9AAAB4"/></g><defs><clipPath id="a"><path fill="#fff" transform="translate(75 75.724)" d="M0 0h64v64H0z"/></clipPath></defs></svg>
